T: Anderson Family Fling, The
M: 4/4
L: 1/8
K: Gmaj
|: D2 FA | dc BA | ~ and one of the several ways I play it:|: F>D F/G/A | d/e/d/c/ BA | B ~ & in G ~ |: B>G B/c/d | g/a/g/f/ ed | e ~
